src/icons/md-finger-print.svg

<?xml version="1.0" encoding="UTF-8"?>
<svg width="512px" height="512px" viewBox="0 0 512 512" version="1.1" xmlns="http://www.w3.org/2000/svg" xmlns:xlink="http://www.w3.org/1999/xlink">
    <!-- Generator: Sketch 62 (91390) - https://sketch.com -->
    <title>md-finger-print</title>
    <desc>Created with Sketch.</desc>
    <g id="md-finger-print" stroke="none" stroke-width="1" fill="none" fill-rule="evenodd">
        <path d="M256.024847,128.35 C297.624847,128.35 336.924847,142.65 369.724847,169.65 C395.124847,190.65 415.924847,218.85 426.724847,247.05 C440.524847,283.05 436.824847,323.45 417.324847,349.85 C404.324847,367.45 385.824847,376.65 365.324847,375.65 C311.924847,372.95 302.324847,335.25 295.324847,307.75 C288.124847,279.55 283.524847,265.95 256.024847,265.95 C240.924847,265.95 230.324847,270.15 223.724847,278.85 C214.724847,290.75 214.024847,309.35 215.024847,322.85 C216.024847,336.95 219.024847,348.35 219.724847,350.65 C221.924847,356.25 250.524847,427.15 319.024847,444.35 C326.624847,446.25 331.124847,453.85 329.224847,461.25 C327.524847,467.55 321.824847,471.75 315.524847,471.75 C314.324847,471.75 313.224847,471.65 312.024847,471.35 C226.324847,449.85 194.324847,363.25 193.024847,359.65 L192.824847,358.85 C192.124847,356.35 174.924847,296.95 201.324847,262.15 C213.424847,246.25 231.824847,238.15 256.124847,238.15 C278.724847,238.15 295.024847,245.25 306.224847,259.95 C315.424847,271.95 319.124847,286.75 322.724847,301.05 C330.224847,330.75 335.624847,346.35 366.824847,347.95 C380.524847,348.65 389.524847,340.55 394.624847,333.65 C408.424847,314.85 410.824847,284.15 400.424847,257.15 C387.024847,222.15 339.624847,156.25 256.024847,156.25 C220.324847,156.25 187.524847,167.85 161.224847,189.65 C139.424847,207.75 122.124847,233.25 113.824847,259.45 C98.4248469,308.25 118.624847,384.95 118.824847,385.65 C120.824847,393.05 116.324847,400.75 108.824847,402.65 C101.324847,404.65 93.5248469,400.15 91.5248469,392.75 C90.6248469,389.25 69.0248469,307.45 86.8248469,251.05 C106.224847,189.95 166.024847,128.35 256.024847,128.35 Z M256.024847,178.55 C301.324847,178.55 336.924847,199.85 359.124847,240.05 C375.224847,269.25 378.424847,298.35 378.524847,299.55 C379.324847,307.25 373.624847,314.05 365.924847,314.85 C358.224847,315.65 351.224847,310.05 350.424847,302.45 C350.424847,302.15 347.624847,277.15 333.924847,252.75 C316.724847,222.05 290.524847,206.45 255.924847,206.45 C226.024847,206.45 202.624847,215.55 186.524847,233.55 C163.324847,259.45 158.824847,299.35 162.024847,325.75 C168.424847,370.75 185.524847,406.55 215.724847,438.55 C221.024847,444.15 220.724847,453.05 215.024847,458.25 C212.424847,460.65 208.924847,461.95 205.524847,461.95 C201.724847,461.95 198.024847,460.45 195.224847,457.55 C160.924847,421.15 141.524847,380.45 134.224847,329.55 L134.224847,329.25 C130.124847,295.55 136.124847,247.85 165.524847,215.05 C187.224847,190.85 217.724847,178.55 256.024847,178.55 Z M269.924847,324.35 C270.024847,325.15 274.124847,369.65 305.724847,395.25 C324.424847,410.35 349.424847,416.35 380.224847,412.85 C387.924847,411.95 394.924847,417.45 395.824847,425.15 C396.724847,432.85 391.124847,439.75 383.424847,440.55 C376.624847,441.35 369.924847,441.75 363.524847,441.75 C333.524847,441.75 308.024847,433.35 287.624847,416.65 C246.624847,383.25 242.024847,328.85 241.824847,326.55 C241.224847,318.85 247.024847,312.15 254.824847,311.55 C262.624847,310.95 269.324847,316.65 269.924847,324.35 Z M256.024847,86.55 C307.224847,86.55 352.124847,100.15 389.424847,126.95 C420.124847,148.95 437.324847,173.85 445.524847,185.85 C449.924847,192.25 448.224847,200.85 441.824847,205.25 C435.424847,209.55 426.624847,207.95 422.224847,201.55 C407.324847,179.95 362.124847,114.35 256.024847,114.35 C152.424847,114.35 105.624847,174.75 90.3248469,200.65 C87.7248469,205.25 83.0248469,207.65 78.1248469,207.65 C75.7248469,207.65 73.2248469,207.05 71.0248469,205.75 C64.3248469,201.85 62.0248469,193.35 65.9248469,186.65 C83.7248469,156.65 137.824847,86.55 256.024847,86.55 Z M256.024847,40.25 C334.024847,40.25 375.524847,63.15 387.224847,70.85 C392.324847,72.95 395.824847,77.95 395.824847,83.75 C395.824847,91.45 389.524847,97.65 381.724847,97.65 C378.524847,97.65 375.624847,96.65 373.224847,94.85 L373.224847,94.85 L373.024847,95.05 L373.124847,95.15 C372.724847,94.95 336.824847,68.15 256.024847,68.15 C175.224847,68.15 139.324847,94.85 138.924847,95.15 L138.924847,95.15 L139.024847,95.05 C136.724847,96.65 133.924847,97.65 130.824847,97.65 C123.024847,97.65 116.724847,91.45 116.724847,83.75 C116.724847,79.65 118.524847,75.95 121.424847,73.35 C121.424847,73.35 121.524847,73.35 121.624847,73.25 C122.124847,72.75 122.724847,72.35 123.324847,71.95 C132.524847,65.55 174.124847,40.25 256.024847,40.25 Z" id="Combined-Shape" fill="#000000" fill-rule="nonzero"></path>
    </g>
</svg>

<svg xmlns="http://www.w3.org/2000/svg" width="512" height="512" viewBox="0 0 512 512">
    <path d="M256.025 128.35c41.6 0 80.9 14.3 113.7 41.3 25.4 21 46.2 49.2 57 77.4 13.8 36 10.1 76.4-9.4 102.8-13 17.6-31.5 26.8-52 25.8-53.4-2.7-63-40.4-70-67.9-7.2-28.2-11.8-41.8-39.3-41.8-15.1 0-25.7 4.2-32.3 12.9-9 11.9-9.7 30.5-8.7 44 1 14.1 4 25.5 4.7 27.8 2.2 5.6 30.8 76.5 99.3 93.7 7.6 1.9 12.1 9.5 10.2 16.9-1.7 6.3-7.4 10.5-13.7 10.5-1.2 0-2.3-.1-3.5-.4-85.7-21.5-117.7-108.1-119-111.7l-.2-.8c-.7-2.5-17.9-61.9 8.5-96.7 12.1-15.9 30.5-24 54.8-24 22.6 0 38.9 7.1 50.1 21.8 9.2 12 12.9 26.8 16.5 41.1 7.5 29.7 12.9 45.3 44.1 46.9 13.7.7 22.7-7.4 27.8-14.3 13.8-18.8 16.2-49.5 5.8-76.5-13.4-35-60.8-100.9-144.4-100.9-35.7 0-68.5 11.6-94.8 33.4-21.8 18.1-39.1 43.6-47.4 69.8-15.4 48.8 4.8 125.5 5 126.2 2 7.4-2.5 15.1-10 17-7.5 2-15.3-2.5-17.3-9.9-.9-3.5-22.5-85.3-4.7-141.7 19.4-61.1 79.2-122.7 169.2-122.7zm0 50.2c45.3 0 80.9 21.3 103.1 61.5 16.1 29.2 19.3 58.3 19.4 59.5.8 7.7-4.9 14.5-12.6 15.3-7.7.8-14.7-4.8-15.5-12.4 0-.3-2.8-25.3-16.5-49.7-17.2-30.7-43.4-46.3-78-46.3-29.9 0-53.3 9.1-69.4 27.1-23.2 25.9-27.7 65.8-24.5 92.2 6.4 45 23.5 80.8 53.7 112.8 5.3 5.6 5 14.5-.7 19.7-2.6 2.4-6.1 3.7-9.5 3.7-3.8 0-7.5-1.5-10.3-4.4-34.3-36.4-53.7-77.1-61-128v-.3c-4.1-33.7 1.9-81.4 31.3-114.2 21.7-24.2 52.2-36.5 90.5-36.5zm13.9 145.8c.1.8 4.2 45.3 35.8 70.9 18.7 15.1 43.7 21.1 74.5 17.6 7.7-.9 14.7 4.6 15.6 12.3.9 7.7-4.7 14.6-12.4 15.4-6.8.8-13.5 1.2-19.9 1.2-30 0-55.5-8.4-75.9-25.1-41-33.4-45.6-87.8-45.8-90.1-.6-7.7 5.2-14.4 13-15 7.8-.6 14.5 5.1 15.1 12.8zm-13.9-237.8c51.2 0 96.1 13.6 133.4 40.4 30.7 22 47.9 46.9 56.1 58.9 4.4 6.4 2.7 15-3.7 19.4-6.4 4.3-15.2 2.7-19.6-3.7-14.9-21.6-60.1-87.2-166.2-87.2-103.6 0-150.4 60.4-165.7 86.3-2.6 4.6-7.3 7-12.2 7-2.4 0-4.9-.6-7.1-1.9-6.7-3.9-9-12.4-5.1-19.1 17.8-30 71.9-100.1 190.1-100.1zm0-46.3c78 0 119.5 22.9 131.2 30.6 5.1 2.1 8.6 7.1 8.6 12.9 0 7.7-6.3 13.9-14.1 13.9-3.2 0-6.1-1-8.5-2.8l-.2.2.1.1c-.4-.2-36.3-27-117.1-27s-116.7 26.7-117.1 27l.1-.1c-2.3 1.6-5.1 2.6-8.2 2.6-7.8 0-14.1-6.2-14.1-13.9 0-4.1 1.8-7.8 4.7-10.4 0 0 .1 0 .2-.1.5-.5 1.1-.9 1.7-1.3 9.2-6.4 50.8-31.7 132.7-31.7z"/>
</svg>
